archdroid-icon-theme/Archdroid-Teal/categories/scalable/applications-boardgames.svg

<svg height="48" width="48" xmlns="http://www.w3.org/2000/svg"><path d="m8.571429 6c-1.424572 0-2.571429 1.146857-2.571429 2.571429v30.857142c0 1.424572 1.146857 2.571429 2.571429 2.571429h30.857142c1.424572 0 2.571429-1.146857 2.571429-2.571429v-30.857142c0-1.424572-1.146857-2.571429-2.571429-2.571429zm5.142857 4.285714a3.428571 3.428571 0 0 1 0 6.857143 3.428571 3.428571 0 1 1 0-6.857143zm20.571429 0a3.428571 3.428571 0 0 1 0 6.857143 3.428571 3.428571 0 1 1 0-6.857143zm-10.285715 10.285715a3.428571 3.428571 0 0 1 0 6.857143 3.428571 3.428571 0 1 1 0-6.857143zm-10.285714 10.285714a3.428571 3.428571 0 0 1 0 6.857143 3.428571 3.428571 0 1 1 0-6.857143zm20.571429 0a3.428571 3.428571 0 0 1 0 6.857143 3.428571 3.428571 0 1 1 0-6.857143z" fill="#009688"/></svg>

<svg height="48" version="1.0" width="48" xmlns="http://www.w3.org/2000/svg" xmlns:xlink="http://www.w3.org/1999/xlink"><defs><linearGradient id="a" gradientTransform="scale(1.0058652 .994169)" gradientUnits="userSpaceOnUse" x1="45.447727" x2="45.447727" y1="92.539597" y2="7.01654"><stop offset="0"/><stop offset="1" stop-opacity=".588235"/></linearGradient><linearGradient id="b"><stop offset="0" stop-color="#fff"/><stop offset="1" stop-color="#fff" stop-opacity="0"/></linearGradient><filter id="c" color-interpolation-filters="sRGB"><feGaussianBlur stdDeviation="1.71"/></filter><filter id="d" color-interpolation-filters="sRGB" height="1.384" width="1.384" x="-.192" y="-.192"><feGaussianBlur stdDeviation="5.28"/></filter><linearGradient id="e" gradientUnits="userSpaceOnUse" x1="48" x2="48" xlink:href="#b" y1="20.220806" y2="138.661194"/><clipPath id="f"><rect fill="#fff" height="84" rx="6" ry="6" width="84" x="6" y="6"/></clipPath></defs><g display="none" transform="translate(-6 -42)"><rect fill="url(#a)" filter="url(#c)" height="85" opacity=".9" rx="6" ry="6" width="86" x="5" y="7"/></g><path d="M8.571429 6C7.146857 6 6 7.146857 6 8.571429L6 39.428571C6 40.853143 7.146857 42 8.571429 42L39.428571 42C40.853143 42 42 40.853143 42 39.428571L42 8.571429C42 7.146857 40.853143 6 39.428571 6L8.571429 6Zm5.142857 4.285714a3.428571 3.428571 0 0 1 0 6.857143 3.428571 3.428571 0 1 1  0-6.857143zm20.571429 0a3.428571 3.428571 0 0 1 0 6.857143 3.428571 3.428571 0 1 1  0-6.857143zM24 20.571429a3.428571 3.428571 0 0 1 0 6.857143 3.428571 3.428571 0 1 1  0-6.857143zM13.714286 30.857143a3.428571 3.428571 0 0 1 0 6.857143 3.428571 3.428571 0 1 1  0-6.857143zm20.571429 0a3.428571 3.428571 0 0 1 0 6.857143 3.428571 3.428571 0 1 1  0-6.857143z" fill="#009688"/><g display="none" transform="translate(-6 -42)"><rect clip-path="url(#f)" fill="url(#e)" filter="url(#d)" height="66" opacity=".1" rx="12" ry="12" stroke="#fff" stroke-linecap="round" stroke-width=".5" width="66" x="15" y="15"/></g></svg>
